!!!!SEGMENT: pl-sa--552-a-ix-32--023_anonim--polones.krn
!!!id: 18xx:534
!!!COM: Anonim
!!!COM-rism: pe30004985
!!!CDT:
!!!CNT:
!!!OTL: Polones
!!!PDT:
!!!SMS-siglum: PL-SA
!!!SMS-shelfmark: 552/A IX 32
!!!NIFC-rismID: 1001069542
!!!URL-scan: http://bc.bdsandomierz.pl/dlibra/publication/1308/edition/1276/content
!!!ONB-nifc: Str. 13, s. 1-3
!!!SMS-variant:
!!!SMS-altvar:
**kern	**kern
*part2	*part1
*staff2	*staff1
*clefF4	*clefG2
*k[b-]	*k[b-]
*F:	*F:
*M3/4	*M3/4
*>[A,A,B,B,C,C,A,D,D,E,E,D]	*>[A,A,B,B,C,C,A,D,D,E,E,D]
=1	=1
*>A	*>A
*tremolo	*
*2\right	*
!LO:TX:a:t=P:problem:jedno metrum	!
!LO:TX:a:t=P:problem:omyłkowo wpisany klucz F3	!LO:TX:a:i:t=Polones
8A 8F\L	4.ff 4.f\
8c\	.
8A 8F\	.
8c\	8ffL 8f\
8A 8F\	8aa 8a\
8c\J	8ffJ 8f\
=2	=2
8B- 8G\L	8.bb-\L
8c\	.
.	16aa\Jk
8B- 8G\	4gg\
8c\	.
8B- 8G\	4r
8c\J	.
=3	=3
8A 8F\L	4.ccc 4.aa\
8c\	.
8A 8F\	.
8c\	8ccc 8aa\
8A 8F\	16gg\LL
.	16aa\
8c\J	16gg\
.	16ff\JJ
=4	=4
8B- 8G\L	8.gg\L
8c\	.
.	16aa\Jk
!	!LO:N:vis=4
!	!LO:TX:a:t=g
8B- 8G\	2bb- 2gg\
8c\	.
8B- 8G\	.
8c\J	.
!LO:TX:a:t=[segno]:problem:znak segno na kresce	!LO:TX:a:t=[segno]:problem:znak segno na kresce
=5	=5
*>B	*>B
*clefG2	*
8aL 8f/	4ff\
8c/J	.
*rep	*
8aL 8f/	16dd\LL
.	16cc\
8c/J	16bn\
.	16cc\JJ
*Xrep	*
*rep	*
8aL 8f/	16aa\LL
.	16cc\
8c/J	16b\
.	16cc\JJ
*Xrep	*
=6	=6
8b-L 8g/	16bb-\LL
.	16gg\
8c/J	16ee\
.	16cc\JJ
*rep	*
8b-L 8g/	4.ccc\
8c/J	.
*Xrep	*
*rep	*
8b-L 8g/	.
8c/J	8ee\
*Xrep	*
=7	=7
8aL 8f/	4ff\
8c/J	.
*	*clefF4
!	!LO:TX:a:t=P:problem:omyłkowo wpisany klucz F3
8gL 8e/	8r
8c/J	8C\L
*rep	*
8gL 8e/	8E\
8c/J	8C\J
*Xrep	*
=8	=8
8aL 8f/	4F\
8c/J	.
*rep	*clefG2
8aL 8f/	8r
8c/J	8ccc\L
*rep	*
8aL 8f/	8bb-\
8c/J	8gg\J
=9	=9
4f/	16ff\LL
.	16cc\
.	16b-\
!	!LO:TX:a:i:t=cis ed
.	16a\JJ
!	!LO:N:vis=16
4B-/	8b-\L
!	!LO:N:vis=16
.	8b-\
!	!LO:N:vis=16
4c/	8a\
!	!LO:N:vis=16
.	8g\J
!!LO:LB:g=original
=10	=10
*clefF4	*
!LO:TX:a:t=P:problem:omyłkowo wpisany klucz F3	!
!LO:TX:a:t=P:problem:mixed beam	!
8c\L	16a/LL
.	16cc/
8C/J	16f/
.	16a/JJ
8r	4g/
8E\	.
4F\	4f/
=11:|!|:	=11:|!|:
*>C	*>C
!LO:TX:a:t=P:problem:mixed beam	!
8C/L	4cc\
8cJ 8B-\	.
8e 8B-\L	8r
8e 8B-\	8gg\L
8e 8B-\	8ff\
8e 8B-\J	8ee\J
=12	=12
8C\L	8ff\L
8AJ 8F\	8ffT\
8A 8F\L	8aa\
8A 8F\	8aat\
8A 8F\	8ccc\
8A 8F\J	8cccT\J
=13	=13
!LO:TX:a:t=P:problem:mixed beam	!
8C/L	4ccc\
8cJ 8B-\	.
8e 8B-\L	8r
8e 8B-\	8cc\L
8e 8B-\	8dd\
8e 8B-\J	8ee\J
*Xtremolo	*
=14	=14
4F\	16ff\LL
.	16aa\
.	16gg\
.	16ff\JJ
4B-\	16bb-\LL
.	16aa\
.	16gg\
.	16ff\JJ
4c\	8ccc\L
.	8ee\J
!LO:TX:a:t=[segno]:problem:znak segno na kresce	!LO:TX:a:t=[segno]:problem:znak segno na kresce
=15||	=15||
*>D	*>D
*clefF4	*clefG2
!LO:TX:a:t=P:problem:omyłkowo wpisany klucz F3	!LO:TX:a:i:t=Trio
.	8qbn/
*clefG2	*
8aL 8f/	4.cc\
8c/J	.
*rep	*
8aL 8f/	.
8c/J	8cc\L
*Xrep	*
*rep	*
8aL 8f/	8ff\
8c/J	8aa\J
*Xrep	*
=16	=16
8b-L 8g/	8aa\L
8c/J	8gg\J
*rep	*
8b-L 8g/	4gg\
8c/J	.
*Xrep	*
*rep	*
8b-L 8g/	4r
8c/J	.
*Xrep	*
=17	=17
*	*clefF4
*rep	*
!	!LO:TX:a:t=P:problem:omyłkowo wpisany klucz F3
8b-L 8g/	4.C\
8c/J	.
*Xrep	*
*rep	*
8b-L 8g/	.
8c/J	8C\L
*Xrep	*
*rep	*
8b-L 8g/	8E\
8c/J	8G\J
*Xrep	*
!!LO:LB:g=original
=18	=18
8aL 8f/	8E\L
8c/J	8F\J
*rep	*
8aL 8f/	4F\
8c/J	.
*Xrep	*
*rep	*
8aL 8f/	4r
8c/J	.
*Xrep	*
=19	=19
*clefF4	*clefG2
!LO:TX:a:t=P:problem:omyłkowo wpisany klucz F3	!
8AL 8F\	4.fff 4.ff\
8c\J	.
*rep	*
8AL 8F\	.
8c\J	8eeeL 8ee\
*Xrep	*
*rep	*
8AL 8F\	8ddd 8dd\
!	!LO:SIC:v:n=2:s=8cc#
8c\J	8ccc#XJ 8cc\
*Xrep	*
=20	=20
*rep	*
8AL 8F\	8dddL 8dd\
8c\J	8ccc#XJ 8cc#X\
*Xrep	*
*rep	*rep
8AL 8F\	8dddL 8dd\
8c\J	8ccc#J 8cc#\
*Xrep	*
*rep	*Xrep
8AL 8F\	8dddL 8dd\
8c\J	8fffJ 8ff\
*Xrep	*
=21	=21
*rep	*
8AL 8F\	4.ccc 4.aa\
8c\J	.
*Xrep	*
*rep	*
8AL 8F\	.
8c\J	8aaL 8ff\
*Xrep	*
*rep	*
8AL 8F\	8bb- 8ggT\
8c\J	8gg\J
*Xrep	*
=22	=22
*	*2\right
4c\	2gg\
4C/	.
4F\	4ff\
=23:|!|:	=23:|!|:
*>E	*>E
*clefG2	*
8b-L 8g/	4cc\
8c/J	.
*rep	*
8b-L 8g/	8r
8c/J	8bb-\L
*Xrep	*
*rep	*
8b-L 8g/	8aa\
8c/J	8gg\J
*Xrep	*
=24	=24
8aL 8f/	8.aa\L
8c/J	.
.	16gg\Jk
*rep	*
8aL 8f/	4.ff\
8c/J	.
*Xrep	*
*rep	*
8aL 8f/	.
8c/J	8ddd\
*Xrep	*
=25	=25
8gL 8e/	8.gg\L
8c/J	.
.	16ff\Jk
*rep	*
8gL 8e/	4.ee\
8c/J	.
*Xrep	*
*rep	*
8gL 8e/	.
8c/J	8eee\
*Xrep	*
=26	=26
8aL 8f/	8fff\L
8c/J	8ccc\J
*rep	*
8aL 8f/	4.aa\
8c/J	.
*Xrep	*
*rep	*
8aL 8f/	.
!	!LO:TX:b:i:t=Trio Da Capo
8c/J	8ff\
*Xrep	*
==	==
*-	*-
!!!system-decoration: {s1,s2}
!!!ENC: Marta Lawrence
!!!END: 2020-12-12
!!!ENC: Andrzej Borzym
!!!END: 2020-06-18
